X:370
T: Schnstes Kind auf dieser Erde (4-69), S. 89
N: P0630
O: Lothringen
S: PINCK, Louis: Verklingende Weisen Bd 4, Kassel 1939]
R: Liebe, Treue]
M: 4/4
L: 1/16
K: F
F6G2 | F4C4A6B2 | A4G4
A6G2 | A2B2c2d2c4B2A2 | A4G4
c6c2 | A6c2f3cc2B2 | A4G4
c6B2 | A2d2c2B2A4G4 | F4z4

@@@ Tune index: 7920
